icons/svg/fan.svg

﻿<?xml version="1.0" encoding="utf-8"?>
<!DOCTYPE svg PUBLIC "-//W3C//DTD SVG 1.1//EN" "http://www.w3.org/Graphics/SVG/1.1/DTD/svg11.dtd">
<svg xmlns="http://www.w3.org/2000/svg" xmlns:xlink="http://www.w3.org/1999/xlink" version="1.1" baseProfile="full" width="24" height="24" viewBox="0 0 24.00 24.00" enable-background="new 0 0 24.00 24.00" xml:space="preserve">
	<path fill="#000000" fill-opacity="1" stroke-linejoin="round" d="M 12,11C 11.4477,11 11,11.4477 11,12C 11,12.5523 11.4477,13 12,13C 12.5523,13 13,12.5523 13,12C 13,11.4477 12.5523,11 12,11 Z M 12.5,1.99999C 17,2 17.1114,5.56925 14.75,6.74998C 13.7605,7.24475 13.3217,8.2903 13.131,9.2205C 13.6123,9.41653 14.0312,9.73393 14.3497,10.1347C 18.0479,8.13324 22.026,8.91646 22.026,12.4844C 22.026,16.9844 18.4568,17.0958 17.276,14.7344C 16.778,13.7384 15.722,13.3004 14.7873,13.1116C 14.5947,13.594 14.2806,14.0147 13.8827,14.3358C 15.8688,18.0276 15.0815,21.9896 11.5208,21.9896C 7.02082,21.9896 6.90938,18.4203 9.27083,17.2396C 10.2542,16.7479 10.6936,15.7123 10.8863,14.7865C 10.398,14.5911 9.97301,14.2712 9.65071,13.8659C 5.95832,15.8535 1.99478,15.0666 1.99479,11.5052C 1.99479,7.00522 5.56404,6.89378 6.74477,9.25522C 7.24005,10.2458 8.28723,10.6844 9.21814,10.8748C 9.41416,10.3907 9.73291,9.96932 10.1358,9.64937C 8.15268,5.95884 8.94075,1.99999 12.5,1.99999 Z "/>
</svg>

<svg xmlns="http://www.w3.org/2000/svg" version="1.1" baseProfile="full" width="24" height="24" viewBox="0 0 24.00 24.00" xml:space="preserve"><path fill="#000" fill-opacity="1" stroke-linejoin="round" d="M12 11c-.552 0-1 .448-1 1s.448 1 1 1 1-.448 1-1-.448-1-1-1zm.5-9c4.5 0 4.61 3.57 2.25 4.75-.99.495-1.428 1.54-1.62 2.47.482.197.9.514 1.22.915 3.698-2.002 7.676-1.22 7.676 2.35 0 4.5-3.57 4.61-4.75 2.25-.498-.997-1.554-1.435-2.49-1.623-.19.482-.505.903-.903 1.224 1.986 3.692 1.2 7.654-2.362 7.654-4.5 0-4.61-3.57-2.25-4.75.984-.492 1.424-1.528 1.616-2.453-.488-.196-.913-.516-1.235-.92-3.692 1.986-7.655 1.2-7.655-2.362 0-4.5 3.57-4.61 4.75-2.25.495.99 1.542 1.43 2.473 1.62.196-.484.515-.906.918-1.226C8.153 5.96 8.94 2 12.5 2z"/></svg>
